X:1
T:Svingedans
t:efter N A Persson
T:(FMK M 143b bild 41)
B:Folkmusikkommissionen
R:Svingedans
S:av Stenbeck
O:St Olof, Skåne
Z:Åke Persson 2012-02-28
M:3/4
L:1/8
Q:108
%%printtempo 0
%%MIDI ratio 2 1
K:G
|: gbaf d2 | dedB G2 | B2 AGFG | AB/A/ GDB,G, | gbaf d2 | dedB G2 | B2 AGFG | AB/A/ G2 G2 :|
|: (Bc)(AB) G2 | (Bd)(ce) d2 | (Bc)(AB) G2 | (Bd)(ce) d2 | ddeeff | g2 dB G2 :|

